dist/img/svg/support7.svg

<svg width="85" height="84" viewBox="0 0 85 84" fill="none" xmlns="http://www.w3.org/2000/svg">
<g filter="url(#filter0_d)">
<ellipse cx="53" cy="52" rx="52" ry="52" fill="#F5F5F5"/>
</g>
<g clip-path="url(#clip0)" filter="url(#filter1_d)">
<g filter="url(#filter2_d)">
<path d="M83.9413 44.0704L85.4684 44.0704C87.9759 44.0704 89.9933 46.1066 89.9933 48.5953L89.9933 55.7031C89.9933 56.1556 89.767 56.5704 89.39 56.8155C88.8621 57.1548 88.5604 57.7393 88.5604 58.3615L88.5604 65.2053C88.5604 66.0537 89.0317 66.789 89.7859 67.1661C90.672 67.5997 95.2723 69.9187 99.5332 73.4255C99.8914 73.7271 100.099 74.1608 100.099 74.651L100.099 79.5152C100.099 80.5522 100.928 81.3817 101.965 81.3817C103.002 81.3817 103.832 80.5522 103.832 79.5152L103.832 74.651C103.832 73.0484 103.134 71.559 101.89 70.5409C98.138 67.4489 94.1222 65.2242 92.2746 64.2626L92.2746 59.2287C93.1795 58.286 93.7074 57.0417 93.7074 55.7031L93.7074 48.5953C93.7074 44.0327 89.9933 40.3374 85.4496 40.3374L83.9224 40.3374C79.3599 40.3374 75.6646 44.0516 75.6646 48.5953L75.6646 55.7031C75.6646 57.0417 76.1925 58.286 77.0974 59.2287L77.0974 61.6608C77.0974 62.6978 77.927 63.5273 78.9639 63.5273C80.0009 63.5273 80.8304 62.6978 80.8304 61.6608L80.8304 58.3803C80.8304 57.7581 80.5099 57.1737 80.0009 56.8343C79.6238 56.5892 79.3976 56.1744 79.3976 55.7219L79.3976 48.6141C79.3976 46.1066 81.4337 44.0704 83.9413 44.0704Z" fill="#F14D34" stroke="#F14D34" stroke-width="1.7"/>
<path d="M13.3346 70.5597C12.1091 71.5778 11.3927 73.0672 11.3927 74.6698L11.3927 79.534C11.3927 80.571 12.2223 81.4005 13.2592 81.4005C14.2962 81.4005 15.1257 80.571 15.1257 79.534L15.1257 74.6698C15.1257 74.1984 15.3331 73.7459 15.6913 73.4443C19.9522 69.9564 24.5525 67.6185 25.4386 67.1849C26.1928 66.8078 26.6641 66.0725 26.6641 65.2241L26.6641 58.3803C26.6641 57.7581 26.3436 57.1736 25.8346 56.8343C25.4575 56.5892 25.2312 56.1744 25.2312 55.7219L25.2312 48.6141C25.2312 46.1066 27.2674 44.0892 29.7561 44.0892L31.2833 44.0892C33.7908 44.0892 35.8081 46.1254 35.8081 48.6141L35.8081 55.7219C35.8081 56.1744 35.5819 56.5892 35.2048 56.8343C34.6769 57.1736 34.3752 57.7581 34.3752 58.3803L34.3752 61.8116C34.3752 62.8486 35.2048 63.6781 36.2418 63.6781C37.2787 63.6781 38.1083 62.8486 38.1083 61.8116L38.1083 59.2475C39.0132 58.3048 39.5411 57.0605 39.5411 55.7219L39.5411 48.6141C39.5411 44.0515 35.827 40.3562 31.2833 40.3562L29.7561 40.3562C25.1935 40.3562 21.4982 44.0704 21.4982 48.6141L21.4982 55.7219C21.4982 57.0605 22.0261 58.3048 22.9311 59.2475L22.9311 64.2814C21.1023 65.243 17.0865 67.4865 13.3346 70.5597Z" fill="#F14D34" stroke="#F14D34" stroke-width="1.7"/>
<path d="M80.0575 81.4006C81.0945 81.4006 81.924 80.571 81.924 79.5341L81.924 73.237C81.924 71.3327 81.0945 69.5605 79.6239 68.3539C74.59 64.2061 69.1979 61.2649 66.992 60.1337L66.992 53.0447C68.1609 51.9135 68.8396 50.3675 68.8396 48.7084L68.8396 39.5079C68.8396 33.9083 64.2771 29.3646 58.6964 29.3646L56.7168 29.3646C51.1173 29.3646 46.5735 33.9272 46.5735 39.5079L46.5735 48.7084C46.5735 50.3675 47.2523 51.9135 48.4212 53.0447L48.4212 60.1337C46.2153 61.2649 40.8232 64.2061 35.7893 68.3539C34.3187 69.5605 33.4891 71.3327 33.4891 73.2369L33.4891 79.534C33.4891 80.571 34.3187 81.4006 35.3556 81.4006C36.3926 81.4006 37.2221 80.571 37.2221 79.5341L37.2221 73.2369C37.2221 72.464 37.5615 71.7287 38.1648 71.2385C43.7266 66.6759 49.7409 63.6405 50.891 63.0749C51.6829 62.6978 52.1731 61.9059 52.1731 61.0387L52.1731 52.1775C52.1731 51.5553 51.8525 50.9708 51.3435 50.6315C50.7025 50.1978 50.3254 49.5003 50.3254 48.7273L50.3254 39.5267C50.3254 35.9822 53.21 33.1165 56.7356 33.1165L58.7153 33.1165C62.2597 33.1165 65.1255 36.0011 65.1255 39.5267L65.1255 48.7273C65.1255 49.4814 64.7484 50.1978 64.1074 50.6315C63.5795 50.9708 63.2778 51.5553 63.2778 52.1775L63.2778 61.0387C63.2778 61.9059 63.768 62.6978 64.5599 63.0937C65.7099 63.6593 71.7242 66.6948 77.2861 71.2573C77.8894 71.7475 78.2287 72.4828 78.2287 73.2558L78.2287 79.5529C78.191 80.571 79.0206 81.4006 80.0575 81.4006Z" fill="#F14D34" stroke="#F14D34" stroke-width="1.7"/>
</g>
</g>
<defs>
<filter id="filter0_d" x="0" y="0" width="106" height="106" filterUnits="userSpaceOnUse" color-interpolation-filters="sRGB">
<feFlood flood-opacity="0" result="BackgroundImageFix"/>
<feColorMatrix in="SourceAlpha" type="matrix" values="0 0 0 0 0 0 0 0 0 0 0 0 0 0 0 0 0 0 127 0"/>
<feOffset dy="1"/>
<feGaussianBlur stdDeviation="0.5"/>
<feColorMatrix type="matrix" values="0 0 0 0 0 0 0 0 0 0 0 0 0 0 0 0 0 0 0.1 0"/>
<feBlend mode="normal" in2="BackgroundImageFix" result="effect1_dropShadow"/>
<feBlend mode="normal" in="SourceGraphic" in2="effect1_dropShadow" result="shape"/>
</filter>
<filter id="filter1_d" x="5.3927" y="6.16309" width="94.4392" height="94.4392" filterUnits="userSpaceOnUse" color-interpolation-filters="sRGB">
<feFlood flood-opacity="0" result="BackgroundImageFix"/>
<feColorMatrix in="SourceAlpha" type="matrix" values="0 0 0 0 0 0 0 0 0 0 0 0 0 0 0 0 0 0 127 0"/>
<feOffset dy="1"/>
<feGaussianBlur stdDeviation="0.5"/>
<feColorMatrix type="matrix" values="0 0 0 0 0 0 0 0 0 0 0 0 0 0 0 0 0 0 0.1 0"/>
<feBlend mode="normal" in2="BackgroundImageFix" result="effect1_dropShadow"/>
<feBlend mode="normal" in="SourceGraphic" in2="effect1_dropShadow" result="shape"/>
</filter>
<filter id="filter2_d" x="9.54272" y="28.5146" width="96.1391" height="55.7359" filterUnits="userSpaceOnUse" color-interpolation-filters="sRGB">
<feFlood flood-opacity="0" result="BackgroundImageFix"/>
<feColorMatrix in="SourceAlpha" type="matrix" values="0 0 0 0 0 0 0 0 0 0 0 0 0 0 0 0 0 0 127 0"/>
<feOffset dy="1"/>
<feGaussianBlur stdDeviation="0.5"/>
<feColorMatrix type="matrix" values="0 0 0 0 0 0 0 0 0 0 0 0 0 0 0 0 0 0 0.05 0"/>
<feBlend mode="normal" in2="BackgroundImageFix" result="effect1_dropShadow"/>
<feBlend mode="normal" in="SourceGraphic" in2="effect1_dropShadow" result="shape"/>
</filter>
<clipPath id="clip0">
<rect width="92.4392" height="92.4392" fill="white" transform="translate(6.3927 6.16309)"/>
</clipPath>
</defs>
</svg>

<svg width="85" height="84" fill="none" xmlns="http://www.w3.org/2000/svg"><g filter="url(#filter0_d)"><circle cx="53" cy="52" fill="#F5F5F5" r="52"/></g><g clip-path="url(#clip0)" filter="url(#filter1_d)"><g filter="url(#filter2_d)" fill="#F14D34" stroke="#F14D34" stroke-width="1.7"><path d="M83.941 44.07h1.527a4.526 4.526 0 014.525 4.525v7.108c0 .453-.226.867-.603 1.112-.528.34-.83.924-.83 1.547v6.843a2.17 2.17 0 001.226 1.961c.886.434 5.486 2.753 9.747 6.26.358.301.566.735.566 1.225v4.864c0 1.037.829 1.867 1.866 1.867a1.86 1.86 0 001.867-1.867v-4.864a5.27 5.27 0 00-1.942-4.11c-3.752-3.092-7.768-5.317-9.615-6.278v-5.034a5.074 5.074 0 001.432-3.526v-7.108c0-4.562-3.714-8.258-8.257-8.258h-1.528c-4.562 0-8.257 3.715-8.257 8.258v7.108c0 1.339.527 2.583 1.432 3.526v2.432c0 1.037.83 1.866 1.867 1.866s1.866-.83 1.866-1.866v-3.28a1.87 1.87 0 00-.83-1.547 1.321 1.321 0 01-.602-1.112v-7.108a4.546 4.546 0 014.543-4.544zM13.335 70.56a5.328 5.328 0 00-1.942 4.11v4.864c0 1.037.83 1.866 1.866 1.866a1.859 1.859 0 001.867-1.866V74.67c0-.472.207-.924.565-1.226 4.261-3.488 8.861-5.826 9.748-6.26a2.17 2.17 0 001.225-1.96V58.38a1.87 1.87 0 00-.83-1.546 1.321 1.321 0 01-.603-1.112v-7.108a4.526 4.526 0 014.525-4.525h1.527a4.526 4.526 0 014.525 4.525v7.108c0 .452-.226.867-.603 1.112-.528.34-.83.924-.83 1.546v3.432c0 1.037.83 1.866 1.867 1.866s1.866-.83 1.866-1.866v-2.564a5.074 5.074 0 001.433-3.526v-7.108c0-4.563-3.714-8.258-8.258-8.258h-1.527c-4.563 0-8.258 3.714-8.258 8.258v7.108c0 1.338.528 2.583 1.433 3.526v5.033c-1.829.962-5.845 3.206-9.596 6.279z"/><path d="M80.058 81.4a1.858 1.858 0 001.866-1.866v-6.297c0-1.904-.83-3.676-2.3-4.883-5.034-4.148-10.426-7.09-12.632-8.22v-7.09a6.016 6.016 0 001.848-4.336v-9.2c0-5.6-4.563-10.143-10.144-10.143h-1.98c-5.599 0-10.142 4.562-10.142 10.143v9.2c0 1.66.678 3.206 1.847 4.337v7.089c-2.206 1.13-7.598 4.072-12.632 8.22a6.272 6.272 0 00-2.3 4.883v6.297c0 1.037.83 1.867 1.867 1.867s1.866-.83 1.866-1.867v-6.297c0-.773.34-1.508.943-1.998 5.562-4.563 11.576-7.599 12.726-8.164a2.247 2.247 0 001.282-2.036v-8.861c0-.623-.32-1.207-.83-1.546a2.279 2.279 0 01-1.018-1.905v-9.2c0-3.545 2.885-6.41 6.41-6.41h1.98a6.416 6.416 0 016.41 6.41v9.2c0 .754-.377 1.47-1.018 1.905-.527.339-.83.923-.83 1.546v8.86c0 .868.491 1.66 1.283 2.056 1.15.565 7.164 3.6 12.726 8.163a2.57 2.57 0 01.943 1.999v6.297c-.038 1.018.792 1.848 1.829 1.848z"/></g></g><defs><filter id="filter0_d" x="0" y="0" width="106" height="106" filterUnits="userSpaceOnUse" color-interpolation-filters="sRGB"><feFlood flood-opacity="0" result="BackgroundImageFix"/><feColorMatrix in="SourceAlpha" values="0 0 0 0 0 0 0 0 0 0 0 0 0 0 0 0 0 0 127 0"/><feOffset dy="1"/><feGaussianBlur stdDeviation=".5"/><feColorMatrix values="0 0 0 0 0 0 0 0 0 0 0 0 0 0 0 0 0 0 0.1 0"/><feBlend in2="BackgroundImageFix" result="effect1_dropShadow"/><feBlend in="SourceGraphic" in2="effect1_dropShadow" result="shape"/></filter><filter id="filter1_d" x="5.393" y="6.163" width="94.439" height="94.439" filterUnits="userSpaceOnUse" color-interpolation-filters="sRGB"><feFlood flood-opacity="0" result="BackgroundImageFix"/><feColorMatrix in="SourceAlpha" values="0 0 0 0 0 0 0 0 0 0 0 0 0 0 0 0 0 0 127 0"/><feOffset dy="1"/><feGaussianBlur stdDeviation=".5"/><feColorMatrix values="0 0 0 0 0 0 0 0 0 0 0 0 0 0 0 0 0 0 0.1 0"/><feBlend in2="BackgroundImageFix" result="effect1_dropShadow"/><feBlend in="SourceGraphic" in2="effect1_dropShadow" result="shape"/></filter><filter id="filter2_d" x="9.543" y="28.515" width="96.139" height="55.736" filterUnits="userSpaceOnUse" color-interpolation-filters="sRGB"><feFlood flood-opacity="0" result="BackgroundImageFix"/><feColorMatrix in="SourceAlpha" values="0 0 0 0 0 0 0 0 0 0 0 0 0 0 0 0 0 0 127 0"/><feOffset dy="1"/><feGaussianBlur stdDeviation=".5"/><feColorMatrix values="0 0 0 0 0 0 0 0 0 0 0 0 0 0 0 0 0 0 0.05 0"/><feBlend in2="BackgroundImageFix" result="effect1_dropShadow"/><feBlend in="SourceGraphic" in2="effect1_dropShadow" result="shape"/></filter><clipPath id="clip0"><path fill="#fff" transform="translate(6.393 6.163)" d="M0 0h92.439v92.439H0z"/></clipPath></defs></svg>
